!!!COM: Palestrina, Giovanni Perluigi da
!!!OPR: Missa O virgo simul et mater
!!!OMD: Credo
!!!OTL: Et in Spiritum
**kern	**kern	**kern	**kern	**kern
*Ibass	*Itenor	*Icalto	*Icalto	*Icant
!Bassus	!Tenor	!Altus 2	!Altus 1	!Cantus
*clefF4	*clefGv2	*clefG2	*clefG2	*clefG2
*k[b-]	*k[b-]	*k[b-]	*k[b-]	*k[b-]
*G:dor	*G:dor	*G:dor	*G:dor	*G:dor
*M4/2	*M4/2	*M4/2	*M4/2	*M4/2
=136	=136	=136	=136	=136
1.G	0r	1.b-	1.g	1r
.	.	.	.	[1dd
2G	.	2b-	2g	.
=137	=137	=137	=137	=137
2G	1.d	2.g	2.b-	2dd]
2G	.	.	.	2dd
.	.	4g	4a	.
[1D	.	[1f	2a	2dd
.	2d	.	[2a	2dd
=138	=138	=138	=138	=138
2D]	2d	2f]	2a]	0a
1d	2d	2d	2f	.
.	2A	1e	2.e	.
2c	[2a	.	.	.
.	.	.	4e	.
=139	=139	=139	=139	=139
2B-	2a]	2f	1d	1.dd
2B-	2g	2g	.	.
1A	2f	1a	2r	.
.	2e	.	[2a	2cc
=140	=140	=140	=140	=140
2r	2d	0r	2a]	2b-
1d	2G	.	2g	2b-
.	1A	.	2f	1a
2c	.	.	2e	.
=141	=141	=141	=141	=141
2B-	2B-	1f	4d	2dd
.	.	.	4e	.
2A	2c	.	2f	2cc
[1G	4d	1g	1B-	2b-
.	4c	.	.	.
.	4B-	.	.	[2dd
.	4A	.	.	.
=142	=142	=142	=142	=142
1G]	1B-	2d	0r	4dd]
.	.	.	.	4cc
.	.	2e	.	1b-
1F	1c	1f	.	.
.	.	.	.	2a
=143	=143	=143	=143	=143
2r	1B-	1d	2.f	2b-
1d	.	.	.	1ff
.	.	.	4e	.
.	1r	2.a	2d	.
2c	.	.	2e	2ee
.	.	4a	.	.
=144	=144	=144	=144	=144
2B-	1r	2d	2g	2dd
2A	.	2e	2a	2cc
2G	2r	2g	2.d	2b-
2F#	[2d	2a	.	2a
.	.	.	4d	.
=145	=145	=145	=145	=145
1G	4d]	4b-	1B-	2g
.	4d	4a	.	.
.	2d	4g	.	2dd
.	.	4f	.	.
1C	4g	4e-	[1c	2.cc
.	4f	4d	.	.
.	4e-	2c	.	.
.	4d	.	.	4b-
=146	=146	=146	=146	=146
1C	2c	2e-	2c]	4a
.	.	.	.	4g
.	2B-	2e-	2G	1g
1D	1A	1d	4d	.
.	.	.	8c	.
.	.	.	8B-	.
.	.	.	2A	2f#
=147	=147	=147	=147	=147
2G	2G	2d	2B-	1g
2G	2d	2g	2b-	.
2G	2d	2g	2b-	1r
[2G	2e-	[2g	[2b-	.
=148	=148	=148	=148	=148
2G]	2d	2g]	2b-]	0r
2F	1f	2c	1a	.
1B-	.	1d	.	.
.	[2d	.	2g	.
=149	=149	=149	=149	=149
2A	2d]	2e	2.a	1r
2A	2c#	2e	.	.
.	.	.	4a	.
1D	1d	1f#	1a	2r
.	.	.	.	[2dd
=150	=150	=150	=150	=150
2.G	2.B-	2.g	2.d	2dd]
.	.	.	.	2dd
4G	4B-	4g	4d	.
2G	2B-	[1g	2d	2dd
2G	2d	.	2G	2b-
=151	=151	=151	=151	=151
0C	0c	2g]	0g	0ee-
.	.	2c	.	.
.	.	1cc	.	.
=152	=152	=152	=152	=152
0G	1d	2b-	2g	1dd
.	.	2b-	2g	.
.	2r	2b-	2g	2r
.	2d	2b-	2g	2dd
=153	=153	=153	=153	=153
0r	2d	1a	0f	2dd
.	2d	.	.	2dd
.	2d	2a	.	4ff
.	.	.	.	4ee-
.	2B-	[2b-	.	4dd
.	.	.	.	4cc
=154	=154	=154	=154	=154
0r	1e-	4b-]	1g	2b-
.	.	4a	.	.
.	.	1g	.	2cc
.	1d	.	1a	1dd
.	.	2f#	.	.
=155	=155	=155	=155	=155
1.G	2r	2r	2d	2b
.	1B	1g	1d	1dd
2G	2B	2g	2d	2dd
=156	=156	=156	=156	=156
2G	2B	2d	2g	2dd
2G	2B	2d	2g	2dd
1C	1c	1e	1g	2cc
.	.	.	.	[2cc
=157	=157	=157	=157	=157
0F	2.c	2r	2.a	4cc]
.	.	.	.	4b-
.	.	2.cc	.	4a
.	4B-	.	4b-	4g
.	4A	.	2cc	2f
.	4G	4b-	.	.
.	[2F	4a	2c	[2ff
.	.	4g	.	.
=158	=158	=158	=158	=158
1D	2F]	2f	1d	4ff]
.	.	.	.	4ee
.	2f	2a	.	1dd
1A	1e	1a	1e	.
.	.	.	.	2cc#
=159	=159	=159	=159	=159
0D	2d	2a	0f#	1dd
.	2d	4r	.	.
.	.	4a	.	.
.	2d	2a	.	2r
.	2d	2a	.	2dd
=160	=160	=160	=160	=160
0r	1g	1b-	0r	2dd
.	.	.	.	2dd
.	2f	2a	.	1ff
.	2d	2f	.	.
=161	=161	=161	=161	=161
0r	2.c	2g	0r	2ee
.	.	2a	.	2cc
.	4c	.	.	.
.	1g	1b-	.	2dd
.	.	.	.	2ee
=162	=162	=162	=162	=162
1r	1d	1a	1r	2.ff
.	.	.	.	4ee
1D	2d	2f	1a	[1dd
.	2d	2f	.	.
=163	=163	=163	=163	=163
2D	2.f	2.d	2a	1dd]
2D	.	.	2a	.
.	4f	4d	.	.
2.A	2e	4c	2.cc	1r
.	.	4d	.	.
.	2c	4e	.	.
4A	.	4f	4cc	.
=164	=164	=164	=164	=164
2G	2d	2g	2b-	0r
2G	2e	2g	2g	.
2F	2.f	2c	2a	.
2D	.	2d	2b	.
.	8e	.	.	.
.	8d	.	.	.
=165	=165	=165	=165	=165
0C	1g	0e	1cc	2r
.	.	.	.	1g
.	1c	.	2r	.
.	.	.	2g	[2cc
=166	=166	=166	=166	=166
1r	2.f	1r	2.a	4cc]
.	.	.	.	4b-
.	.	.	.	2cc
.	4e	.	4g	.
2r	2f	2d	2a	1dd
2G	2g	[2g	2b-	.
=167	=167	=167	=167	=167
2.c	1.e	4g]	1cc	1.ee
.	.	4f	.	.
.	.	2g	.	.
4B-	.	.	.	.
2c	.	2a	2cc	.
2d	2d	[2f	[2b-	2ff
=168	=168	=168	=168	=168
2B-	1g	2f]	4b-]	2dd
.	.	.	4a	.
2c	.	2e	1g	4cc
.	.	.	.	4b-
1A	1c	2e	.	1cc
.	.	4d	2f#	.
.	.	4c	.	.
=169	=169	=169	=169	=169
2G	1r	2d	2g	2b-
1G	.	2d	1b-	1dd
.	[1d	2g	.	.
2G	.	2g	2b-	2dd
=170	=170	=170	=170	=170
2D	2d]	1f	2a	2ff
2D	2d	.	2a	2ff
1F	2A	2f	1a	[1ff
.	2A	[2cc	.	.
=171	=171	=171	=171	=171
1C	2c	2cc]	1g	2ff]
.	2c	2g	.	2ee-
2G	2B-	1b-	1g	2dd
2G	2B-	.	.	[2dd
=172	=172	=172	=172	=172
1B-	1d	1b-	1f	4dd]
.	.	.	.	4cc
.	.	.	.	1b-
1F	1c	1cc	1f	.
.	.	.	.	2a
=173	=173	=173	=173	=173
2r	1B-	2f	2d	1b-
1B-	.	1d	2f	.
.	1r	.	2g	1r
2c	.	2e	[2a	.
=174	=174	=174	=174	=174
2.d	0r	1f	2a]	2r
.	.	.	2d	1b-
4B-	.	.	.	.
1e-	.	1g	2r	.
.	.	.	2g	2cc
=175	=175	=175	=175	=175
1d	2r	1f	2a	1dd
.	1B-	.	1b-	.
1r	.	2g	.	2b-
.	2c	[2a	4a	[2ee-
.	.	.	4g	.
=176	=176	=176	=176	=176
2r	2.d	4a]	2f	4ee-]
.	.	4f	.	4dd
1G	.	1b-	2g	1dd
.	4B-	.	.	.
.	1e-	.	1r	.
2A	.	4a	.	2cc
.	.	4g	.	.
=177	=177	=177	=177	=177
1.B-	1d	1f	2r	1.dd
.	.	.	2b-	.
.	1r	1f	2b-	.
2F	.	.	[2a	2cc
=178	=178	=178	=178	=178
1G	2r	2.d	2a]	1b-
.	1d	.	2g	.
.	.	4e	.	.
2D	.	2f	1a	1a
2A	2e	2c	.	.
=179	=179	=179	=179	=179
2D	2f	2d	1a	2r
2.F	2c	2A	.	2ff
.	1d	[1a	2f	2ff
4D	.	.	.	.
[2d	.	.	2d	[2ff
=180	=180	=180	=180	=180
4d]	1A	2a]	1e	4ff]
4c#	.	.	.	4ee
4c#	.	2a	.	2.ee
8B	.	.	.	.
8c#	.	.	.	.
1d	2d	2.f	[1a	.
.	.	.	.	4dd
.	2f	.	.	[2dd
.	.	4g	.	.
=181	=181	=181	=181	=181
1A	1e	4a	0a]	2dd]
.	.	8g	.	.
.	.	8f	.	.
.	.	2e	.	2cc#
1D	[1d	2f	.	1dd
.	.	2a	.	.
=182	=182	=182	=182	=182
1G	1d]	1b-	1r	2r
.	.	.	.	2dd
1d	1r	2a	2r	[1ff
.	.	2f	2a	.
=183	=183	=183	=183	=183
2.c	0r	1g	1.cc	2ff]
.	.	.	.	2ee
4B-	.	.	.	.
2A	.	1f	.	2cc
2B-	.	.	2b-	[2dd
=184	=184	=184	=184	=184
2c	1r	2e	2g	2dd]
2F	.	2f	1a	2cc
2G	2r	1d	.	2b-
2G	[2d	.	2g	2b-
=185	=185	=185	=185	=185
1D	2d]	2r	2f	1a
.	1f	2a	2d	.
1r	.	[1cc	1A	2r
.	2e	.	.	[2ee
=186	=186	=186	=186	=186
0r	2c	2cc]	4a	2ee]
.	.	.	4g	.
.	1d	2a	4f	1ff
.	.	.	4e	.
.	.	2f	2d	.
.	2c	[2g	4e	[2ee
.	.	.	4f	.
=187	=187	=187	=187	=187
1r	2B-	2g]	1g	2ee]
.	2B-	2d	.	1dd
2r	1A	2f	2a	.
2A	.	2e	2a	2cc#
=188	=188	=188	=188	=188
1.B-	2r	2.d	1f	2dd
.	2d	.	.	1dd
.	.	4c	.	.
.	[1f	2B-	2d	.
2A	.	2c	[2g	4cc
.	.	.	.	4b-
=189	=189	=189	=189	=189
2F	2f]	2.d	2g]	2a
1G	2d	.	1b-	2g
.	.	4c	.	.
.	2B-	4d	.	2r
.	.	4e	.	.
2F	[2c	2f	[2a	2a
=190	=190	=190	=190	=190
2E-	2c]	1g	2a]	1cc
2E-	2G	.	1g	.
1D	2.A	2r	.	2dd
.	.	[2d	2f#	[2dd
.	4A	.	.	.
=191	=191	=191	=191	=191
0G	2B	2d]	0g	2dd]
.	2.c	2c	.	1ee-
.	.	1d	.	.
.	4B	.	.	.
.	2B	.	.	[2dd
=192	=192	=192	=192	=192
1C	2c	1e-	[0g	2dd]
.	2.g	.	.	1cc
1G	.	1d	.	.
.	4f	.	.	.
.	2d	.	.	2b
=193	=193	=193	=193	=193
0C	2.e-	1c	0g]	1cc
.	4d	.	.	.
.	1c	1e-	.	1cc
=194	=194	=194	=194	=194
0G	0B	0d	0g	0dd
==	==	==	==	==
*-	*-	*-	*-	*-
!!!CDT: 1525/^1526/-1594/2/2
!!!OCY: Italia
!!!AGN: Mass (Parody)
!!!AST: renaissance, vocal
!!!ASW: Motet 1572 (Palestrina)
!!!PWK: Masses, Book 10
!!!RNB: Cadence finals: D
!!!YOR: Le Opere Complete, v. 27, p. 89
!!!YOO: Rome, Italy: Fratelli Scalera
!!!END: 1992//
!!!EED: John Miller
!!!YEC: Copyright 2000, John Miller
!!!YEN: United States of America
!!!YEM: Rights to all derivative electronic formats reserved.
!!!YEM: Refer to licensing agreement for further details.
!!!YEM: This file must be accompanied by the licensing agreement.
!!!YEM: A copy of the licensing agreement may be found at http://www.music-cog.ohio-state.edu/HumdrumDatabases/Palestrina/license.txt
!!!EMD: converted to Humdrum by Bret Aarden
